symbols/web/satellite/materialsymbolsoutlined/satellite_wght600grad200_20px.svg

<svg xmlns="http://www.w3.org/2000/svg" height="20" width="20"><path d="M4.958 10.521q2.313 0 3.938-1.625t1.625-3.938H8.75q0 1.584-1.104 2.688T4.958 8.75Zm0-3.063q1.063 0 1.792-.718.729-.719.729-1.782H4.958Zm-.333 7.063h10.729l-3.5-4.771-2.479 3.333-1.875-2.5Zm-.229 3.729q-1.104 0-1.875-.771-.771-.771-.771-1.875V4.396q0-1.104.771-1.875.771-.771 1.875-.771h11.208q1.104 0 1.875.771.771.771.771 1.875v11.208q0 1.104-.771 1.875-.771.771-1.875.771Zm0-2.646h11.208V4.396H4.396v11.208Zm0-11.208v11.208V4.396Z"/></svg>

<svg xmlns="http://www.w3.org/2000/svg" height="20" width="20"><path d="M4.958 10.521Q7.271 10.521 8.896 8.896Q10.521 7.271 10.521 4.958H8.75Q8.75 6.542 7.646 7.646Q6.542 8.75 4.958 8.75ZM4.958 7.458Q6.021 7.458 6.75 6.74Q7.479 6.021 7.479 4.958H4.958ZM4.625 14.521H15.354L11.854 9.75L9.375 13.083L7.5 10.583ZM4.396 18.25Q3.292 18.25 2.521 17.479Q1.75 16.708 1.75 15.604V4.396Q1.75 3.292 2.521 2.521Q3.292 1.75 4.396 1.75H15.604Q16.708 1.75 17.479 2.521Q18.25 3.292 18.25 4.396V15.604Q18.25 16.708 17.479 17.479Q16.708 18.25 15.604 18.25ZM4.396 15.604H15.604Q15.604 15.604 15.604 15.604Q15.604 15.604 15.604 15.604V4.396Q15.604 4.396 15.604 4.396Q15.604 4.396 15.604 4.396H4.396Q4.396 4.396 4.396 4.396Q4.396 4.396 4.396 4.396V15.604Q4.396 15.604 4.396 15.604Q4.396 15.604 4.396 15.604ZM4.396 4.396Q4.396 4.396 4.396 4.396Q4.396 4.396 4.396 4.396V15.604Q4.396 15.604 4.396 15.604Q4.396 15.604 4.396 15.604Q4.396 15.604 4.396 15.604Q4.396 15.604 4.396 15.604V4.396Q4.396 4.396 4.396 4.396Q4.396 4.396 4.396 4.396Z"/></svg>
